X: 10
T:Trip To Cartmell. BF11.10
T:High Road To Linton,aka. BF11.10
M:4/4
L:1/8
Q:120
C:Browne A hand,High Road To Linton,aka.
S:MS11,c1800.,Browne Coll.,Lakes
R:March
O:England
A:Lakes
N:Reminds me of a march, like the Floral Dance, more than a reel. CGP.
Z:vmp.Chris Partington.
K:D
ceeg aeeg|fddf gfed|cee(f/g/) aeeg|fd (f/g/a/f/) e2d2:|!
|:cAAc BGGB|cAAg aeed|cAAc BGGB|cAAB {cd}d2B2:|]
